public/images/twitter.svg

<svg fill="none" height="40" viewBox="0 0 40 40" width="40" xmlns="http://www.w3.org/2000/svg"><path d="m0 20c0-11.04569 8.95431-20 20-20 11.0457 0 20 8.95431 20 20 0 11.0457-8.9543 20-20 20-11.04569 0-20-8.9543-20-20z" fill="#fff" fill-opacity=".1"/><path d="m28.3337 13.3337s-.5834 1.75-1.6667 2.8333c1.3333 8.3333-7.8333 14.4167-15 9.6667 1.8333.0833 3.6667-.5 5-1.6667-4.1667-1.25-6.25-6.1667-4.1667-10 1.8334 2.1667 4.6667 3.4167 7.5 3.3333-.75-3.5 3.3334-5.5 5.8334-3.1666.9166 0 2.5-1 2.5-1z" stroke="#fff" stroke-linecap="round" stroke-linejoin="round" stroke-width="1.66667"/></svg>

<svg width="40" height="40" viewBox="0 0 40 40" fill="none" xmlns="http://www.w3.org/2000/svg">
<path d="M0 20C0 8.95431 8.95431 0 20 0C31.0457 0 40 8.95431 40 20C40 31.0457 31.0457 40 20 40C8.95431 40 0 31.0457 0 20Z" fill="white" fill-opacity="0.1"/>
<path d="M28.3337 13.3337C28.3337 13.3337 27.7503 15.0837 26.667 16.167C28.0003 24.5003 18.8337 30.5837 11.667 25.8337C13.5003 25.917 15.3337 25.3337 16.667 24.167C12.5003 22.917 10.417 18.0003 12.5003 14.167C14.3337 16.3337 17.167 17.5837 20.0003 17.5003C19.2503 14.0003 23.3337 12.0003 25.8337 14.3337C26.7503 14.3337 28.3337 13.3337 28.3337 13.3337Z" stroke="white" stroke-width="1.66667" stroke-linecap="round" stroke-linejoin="round"/>
</svg>
